X:99
T:Jinn Marcher Mared in the Bered in th


*****************************


15500 0 1.712394 

<star
D:De Beed |
~g3e fedB|~G3A BAGB|~g3e dBAG|~G3A BGEG|~G3A BAGB|~g3g gedB|~G3A BAGB|~g3g gedB|~G3A BA


*****************************


15600 0 1.6605933 

<star
D2 AGFA | BAGF E2DE | EGEF E2DE | EGEF E2DE | EGFG E2DE | EGEF E2DE | EGEF E2DE | EEDF E2DE | EGFG 


*****************************


15700 0 1.3566824 

<star
D:De Beed BA~|1 BGAG G2AG | AGFA BAGA | BGAG AGFA | BGAG AGFA | BAGF GED | EGFG GED | EGFG GED | EG


*****************************


15800 0 1.6429031 

<star
H:Del also played in Garelle also #188
Z:id:hn-reel-22
M:C|
K:G
d2BA BABc|dBAB AGBd|edBA BABA|BABd 


*****************************


15900 0 0.7799077 

<star
D:Det an the the Barter the the the the the the the the the the the the the the the the the the the


*****************************


16000 0 2.0441256 

<starion:
|:D2 BAFA BAFA|B2dB AFAF|AFDF EFEF|DFEF EFEF|AFDF EFAF|FAFA BAFA|BAFA BAFA|B2dB AFFA|B2dB AFDE:


*****************************


16100 0 1.5159072 

<star
D2 DEDE | FAFA BAFA | BAFA BAFA | BAFA BAFA | BAFA BAFA | BAFA BAFA | BAFA BAFA | BAFA BAFA | BAFA 


*****************************


16200 0 0.90569633 

<star
H:Dallin Stome Stomer the Mare also also #173
Z:id:hn-reel-44
M:C|
K:D
D2FA BcBc|dBcB ABcB|ABcB ABc


*****************************


16300 0 1.2752076 

<starion:
D2AB ABcB|ABAB cBAB|cBAB cAAB|ABcA BA~A2|
~g3e dBAB|ABAB ABAB|ABAB ABcA|BA~B2 dBAB|ABcA BA~A2|



*****************************


16400 0 1.8747244 

<starions:
|:~G3A BG~G2|AG~F2 GBAB|cAAG FGAB|cBAG FGEF|GEFG G2AG|ABcd edcB|cAAG FGAB|cAAG FGEF|
F2AF GEFG


*****************************


16500 0 1.6606395 

<starions:
|:~G3A BAGE|D2FG AGEF|G2BG GEDE|D2FG AGEF|G2GE EDD2:|
|:d2dc d2fd|e2fd edcB|A2GE EDD2:|
|:d2dc


*****************************


16600 0 1.5425813 

<starions:
|:~G3A BAGB|cAAG FDDE|D2FE EDD2|
~E3F GEFD|EFEF EDD2|
FAGB ABcB|ABAF GEDE|DEFE EDD2|
|:B2AB cB


*****************************


16700 0 0.9696922 

<star
A2 BAGB | A2BA BAGE | E2FG A2BA | AGFG E2FA | defe dBGB | A2BA BAGB | A2BA BAGB | A2Bc dBG E2D2 | A


*****************************


16800 0 1.608019 

<starion paltere to played in Glayed in Glayed in Glayed in Glayed in Glayed in Glayed in Glane Sto the B


*****************************


16900 0 1.9219021 

<star
D2 (3Bcd ed (3Bcd | edcA BAGE | FGEF EDDF | EFDF DFDD | EFDF EDD2 | AGFG FDD2 | BAGF DFDF | EFDF ED


*****************************


17000 0 1.6694081 

<star
A:D Ad ecdc|dcAG FDD2:|
|:~f3d edcA|cAGE EDD2:|
|:fddc dcAB|cAGE EDD2:|
|:fddc dcAG|FAdc dcAG|FEDE 


*****************************


17100 0 1.5786612 

<starion (3:19
K:D
D2 (3FED ED (3FED | EGEF EDD2 ||
|: fedc d2dB | A2Bc defg | afge d2dB | A2Bc d2dB | A2


*****************************


17200 0 0.7659597 

<starion (3:19
K:D
D2 (3Bcd eA (3Bcd | eaag edcA | AGEF A2 (3Bcd | eaag edcA | ABcA A2 (3Bcd | edcA ABcA 


*****************************


17300 0 1.6513422 

<starion (3:19
D:D,2 EFGE DEFA|dBAF EDD2:|
|: E2 (3Bcd ef gedB|1 A2 (3Bcd ef gedB|ABcA BAFA|
~B3d efdB|cA


*****************************


17400 0 1.621959 

<starion (36 (3cAG A2 (3cde | d2 (3cAG A2 (3cde | fd (3cAG A2 (3cde | d2 (3cAG A2 (3cde | fd (3cAG A2 (3c


*****************************


17500 0 2.5130901 

<startions
|: (3cde fd (3cde | fd (3cde fd (3cde | f2 (3gfe d2 (3cde | fd (3cde fd (3cde | fd (3cde fd (3


*****************************


17600 0 2.038719 

<starions:
|: d2e | def gfed | cAG A2BA | A2B A2BA | AGAG G2AG | G2A BAG | AGA BAG | AGA BAG | G2A BAG | 


*****************************


17700 0 1.6297063 

<starion s af the de de def ged | e2d e2f | gfe d2e | def gfe d2:|2 def gfe | def gfe | d2 def g2e | def 


*****************************


17800 0 1.396965 

<starion 2
|: (3cBA BAG ABc | def gfe ded | cAG A2A BAG | AGF G2A BAG | AGE G2A BAG | AGF G2A BAG | G2A B


*****************************


17900 0 1.4252406 

<starion 1 d2 def gfe|d2 dB A2G | ABc d2A BAG | G2A BAG FAd | efe def gfe | def gfe dBG | ABc dBG A2A:|2 


*****************************


18000 0 1.5671372 

<starion 2 A2 (3AG A2G | A2G G2A B2A | B2A B2A B2A | B2A B2A B2A | B2A B2A B2A | def g2e d2A | def g2e d2


*****************************


18100 0 0.5635337 

<starion 2:
<end>
<start>
